X:1
T:Old Virginny Neber Tire. Roose.0764A
T:Old Virginny Neber Tire. Roose.0764A
T:Clare de Kitchen,aka. Roose.0764A
T:Tom Rice
C:Tom Rice
L:1/8
Q:1/4=100
M:2/4
K:D
V:1 treble 
V:1
 A/F/ | DD D/E/F/G/ | .A.A .A.A | dd dc/d/ | eA A>A | f>d e>c | dA FA | f>d e>c | d>A F>A | %9
 G>F EG | EG EG | A>G FA | FA FA | dd c/d/e/f/ | d3!D.C.! |] %15

